!!!OTL: ICH WEISS MIR EIN MAIDLEIN
!!!ARE: Europa, Mitteleuropa, Deutschland
!!!SCT: E0445
!!!YEM: Copyright 1995, estate of Helmut Schaffrath.
**kern
*ICvox
*Ivox
*M3/4
*k[f#]
*G:
{4g
=1
4.g
8g
4g
=2
2a
4b
=3
2cc
4b
=4
2.a}
=5
{2b
4a
=6
2g}
{4g
=7
4.b
8b
4cc
=8
2dd
4dd
=9
2a
4b
=10
2cc}
{4cc
=11
2b
4cc
=12
2dd
4dd
=13
2a
4b
=14
2.cc}
=15
{2b
4a
=16
2g
4r}
=17
{2b
4cc
=18
2dd
4dd
=19
2a
4b
=20
2cc}
{4cc
=21
4b
2a
=22
2g
4cc
=23
4b
2a
=24
2g}
==
!!!AGN: Liebes - Lied, Spott
!!!ONB: ESAC (Essen Associative Code) Database: ERK1
!!!AMT: simple triple
!!!AIN: vox
!!!EED: Helmut Schaffrath
!!!EEV: 1.0
*-
